layouts/icon-pack/arrow.svg

<?xml version="1.0" encoding="UTF-8"?>
<svg width="1200pt" height="1200pt" version="1.1" viewBox="0 0 1200 1200" xmlns="http://www.w3.org/2000/svg">
 <g fill="#fff">
  <path d="m963.47 488.37 53.438 8.6953c3.6758 0.60938 7.2891-1.375 8.7422-4.8047 9.2344-21.68 44.531-99.164 96.656-152.06 2.7422-2.75 3.4062-6.9492 1.6484-10.41-1.7617-3.4609-5.5469-5.3984-9.3828-4.8008-73.5 11.133-156.87-5.9062-179.86-11.156-3.625-0.83984-7.3555 0.91406-9.0234 4.2422l-24.352 48.352c-1.1758 2.2969-1.1953 5.0156-0.050782 7.3242 1.1484 2.3125 3.3242 3.9414 5.8633 4.3945 48.422 8.5781 56.133 33.516 56.133 33.516s15.727 20.953-5.7891 65.156c-1.1133 2.3047-1.0742 4.9961 0.10156 7.2695 1.1758 2.2734 3.3516 3.8594 5.875 4.2852z"/>
  <path d="m878.23 427.55-586.22 298.73c-5.0195 2.5586-10.613 3.7695-16.242 3.5156l-88.664-3.75c-6.2031-0.23047-12.312 1.5977-17.367 5.2031l-88.453 62.133c-2.9648 2.082-5.0547 5.1875-5.8672 8.7148-0.81641 3.5273-0.30078 7.2344 1.4492 10.406s4.6094 5.5859 8.0273 6.7773l26.086 9.1406c5.5039 1.9258 10.055 5.8984 12.703 11.094 2.6484 5.1953 3.1953 11.211 1.5234 16.797l-8.0156 26.484c-1.0234 3.4531-0.74609 7.1641 0.78516 10.426 1.5312 3.2617 4.207 5.8477 7.5195 7.2656s7.0273 1.5703 10.445 0.42578l102.33-34.969c5.8633-2.0195 10.902-5.9062 14.344-11.062l49.055-73.969c3.1172-4.6797 7.3867-8.4844 12.398-11.039l187.97-95.789-105.54 214.2c-2.4961 5.0469-6.25 9.3633-10.898 12.539l-73.312 50.016c-5.1211 3.4961-8.9453 8.5898-10.875 14.484l-33.656 102.77c-1.125 3.4453-0.9375 7.1797 0.51953 10.496 1.4609 3.3164 4.0898 5.9766 7.3906 7.4727 3.2969 1.4961 7.0312 1.7266 10.488 0.64062l26.367-8.2734c5.5703-1.7656 11.605-1.3125 16.848 1.2695 5.2422 2.582 9.2812 7.0898 11.277 12.582l9.375 25.969c1.25 3.3945 3.7031 6.2109 6.8945 7.9141 3.1914 1.6992 6.8984 2.1641 10.414 1.3047 3.5117-0.85938 6.5898-2.9805 8.6367-5.9609l61.078-89.25c3.5156-5.1094 5.2305-11.246 4.875-17.438l-4.9219-88.617c-0.30469-5.6172 0.84375-11.219 3.3281-16.266l134.72-273.07 325.41-165.77c7.6211-4.0625 12.539-11.84 12.938-20.465 0.39844-8.6289-3.7812-16.824-10.996-21.57-7.2148-4.7461-16.395-5.3398-24.16-1.5586z"/>
  <path d="m815.62 74.742c-52.219 52.898-129.23 89.062-150.8 98.648-3.418 1.4961-5.3594 5.1445-4.6875 8.8125l9.375 53.297c0.4375 2.5508 2.0625 4.7383 4.3789 5.8906 2.3164 1.1562 5.043 1.1328 7.3398-0.054687 43.922-22.102 65.086-6.6562 65.086-6.6562s25.125 7.4062 34.336 55.688c0.47266 2.5234 2.1172 4.6758 4.4258 5.7969 2.3086 1.125 5.0156 1.0859 7.293-0.10156l48-24.984c3.3164-1.7109 5.0273-5.4688 4.1484-9.0938-5.5547-22.898-23.695-106.05-13.5-179.7 0.60937-3.8867-1.3867-7.7148-4.918-9.4492-3.5312-1.7305-7.7812-0.96094-10.48 1.9023z"/>
  <path d="m598.5 517.97 37.5-19.078c6.3438-3.2227 11.473-8.4102 14.625-14.789l80.461-163.15c2.957-5.7695 3.5703-12.461 1.7109-18.672-1.8633-6.2109-6.0508-11.461-11.695-14.656-5.8398-3.1172-12.695-3.7305-18.996-1.6992-6.3008 2.0352-11.508 6.5391-14.426 12.48l-102.02 206.79c-1.8047 3.6797-1.0625 8.1016 1.8438 10.992s7.3281 3.6055 11 1.7812z"/>
 </g>
</svg>

<?xml version="1.0" encoding="UTF-8" standalone="no"?>
<!DOCTYPE svg PUBLIC "-//W3C//DTD SVG 1.1//EN" "http://www.w3.org/Graphics/SVG/1.1/DTD/svg11.dtd">
<svg width="100%" height="100%" viewBox="0 0 510 512" version="1.1" xmlns="http://www.w3.org/2000/svg" xmlns:xlink="http://www.w3.org/1999/xlink" xml:space="preserve" xmlns:serif="http://www.serif.com/" style="fill-rule:evenodd;clip-rule:evenodd;stroke-linejoin:round;stroke-miterlimit:2;">
    <g transform="matrix(1,0,0,1,-75.0387,-71.9196)">
        <g transform="matrix(0.484862,0,0,0.484862,38.6553,37.0485)">
            <path d="M963.47,488.37L1016.91,497.065C1020.58,497.675 1024.2,495.69 1025.65,492.261C1034.88,470.581 1070.18,393.097 1122.31,340.201C1125.05,337.451 1125.71,333.251 1123.95,329.791C1122.19,326.33 1118.41,324.392 1114.57,324.99C1041.07,336.123 957.702,319.084 934.712,313.834C931.087,312.994 927.356,314.748 925.688,318.076L901.336,366.428C900.161,368.725 900.141,371.444 901.286,373.752C902.434,376.065 904.61,377.694 907.149,378.147C955.571,386.725 963.282,411.663 963.282,411.663C963.282,411.663 979.009,432.616 957.493,476.819C956.38,479.123 956.419,481.815 957.594,484.088C958.77,486.362 960.946,487.948 963.469,488.373L963.47,488.37Z" style="fill:white;fill-rule:nonzero;"/>
            <path d="M878.23,427.55L292.01,726.28C286.991,728.839 281.397,730.05 275.768,729.796L187.104,726.046C180.901,725.815 174.792,727.643 169.737,731.249L81.284,793.382C78.319,795.464 76.229,798.569 75.417,802.096C74.6,805.624 75.116,809.331 76.866,812.502C78.616,815.674 81.475,818.088 84.893,819.28L110.979,828.42C116.483,830.346 121.034,834.319 123.682,839.514C126.331,844.71 126.878,850.725 125.206,856.311L117.19,882.795C116.167,886.248 116.444,889.959 117.975,893.221C119.506,896.483 122.182,899.069 125.495,900.487C128.807,901.905 132.522,902.057 135.94,900.913L238.27,865.944C244.133,863.924 249.172,860.038 252.614,854.882L301.669,780.913C304.786,776.233 309.055,772.428 314.067,769.874L502.037,674.085L396.497,888.285C394.001,893.332 390.247,897.648 385.599,900.824L312.287,950.84C307.166,954.336 303.341,959.43 301.412,965.324L267.756,1068.09C266.631,1071.54 266.818,1075.27 268.275,1078.59C269.736,1081.91 272.365,1084.57 275.666,1086.06C278.963,1087.56 282.697,1087.79 286.154,1086.7L312.521,1078.43C318.091,1076.66 324.126,1077.12 329.369,1079.7C334.611,1082.28 338.65,1086.79 340.646,1092.28L350.021,1118.25C351.271,1121.64 353.724,1124.46 356.915,1126.16C360.107,1127.86 363.814,1128.33 367.329,1127.47C370.841,1126.61 373.919,1124.49 375.966,1121.51L437.044,1032.26C440.56,1027.15 442.275,1021.01 441.919,1014.82L436.997,926.203C436.693,920.586 437.841,914.984 440.325,909.937L575.045,636.867L900.455,471.097C908.076,467.035 912.994,459.257 913.393,450.632C913.792,442.003 909.612,433.808 902.397,429.062C895.182,424.316 886.002,423.722 878.237,427.504L878.23,427.55Z" style="fill:white;fill-rule:nonzero;"/>
            <path d="M815.62,74.742C763.401,127.64 686.39,163.804 664.82,173.39C661.402,174.886 659.461,178.534 660.132,182.202L669.507,235.499C669.945,238.05 671.57,240.238 673.886,241.39C676.203,242.546 678.929,242.523 681.226,241.335C725.148,219.233 746.312,234.679 746.312,234.679C746.312,234.679 771.437,242.085 780.648,290.367C781.121,292.891 782.765,295.043 785.074,296.164C787.383,297.289 790.09,297.25 792.367,296.063L840.367,271.079C843.683,269.368 845.394,265.61 844.515,261.985C838.961,239.087 820.82,155.935 831.015,82.285C831.625,78.398 829.629,74.57 826.097,72.836C822.566,71.105 818.316,71.875 815.617,74.738L815.62,74.742Z" style="fill:white;fill-rule:nonzero;"/>
            <path d="M598.5,517.97L636,498.892C642.344,495.669 647.473,490.482 650.625,484.103L731.086,320.953C734.043,315.184 734.656,308.492 732.797,302.281C730.934,296.07 726.746,290.82 721.102,287.625C715.262,284.508 708.407,283.895 702.106,285.926C695.805,287.961 690.598,292.465 687.68,298.406L585.66,505.196C583.855,508.876 584.597,513.297 587.504,516.188C590.41,519.078 594.832,519.793 598.504,517.969L598.5,517.97Z" style="fill:white;fill-rule:nonzero;"/>
        </g>
    </g>
</svg>
